resources/globe-alt.svg

<svg xmlns="http://www.w3.org/2000/svg" width="24" height="24" fill="#f4f4f7" viewBox="0 0 24 24"><path stroke="#555e70" stroke-linecap="round" stroke-linejoin="round" stroke-width="2" d="M21 12C21 16.9706 16.9706 21 12 21M21 12C21 7.02944 16.9706 3 12 3M21 12H3M12 21C7.02944 21 3 16.9706 3 12M12 21C13.6569 21 15 16.9706 15 12C15 7.02944 13.6569 3 12 3M12 21C10.3431 21 9 16.9706 9 12C9 7.02944 10.3431 3 12 3M3 12C3 7.02944 7.02944 3 12 3"/></svg>

<svg width="24" height="24" fill="#f4f4f7">
  <path stroke="#555e70" stroke-linecap="round" stroke-linejoin="round" stroke-width="2" d="M21 12a9 9 0 0 1-9 9m9-9a9 9 0 0 0-9-9m9 9H3m9 9a9 9 0 0 1-9-9m9 9c1.657 0 3-4.03 3-9s-1.343-9-3-9m0 18c-1.657 0-3-4.03-3-9s1.343-9 3-9m-9 9a9 9 0 0 1 9-9"/>
</svg>
